X:184
T:March in the Battle of Parague (Prague)
O:No 184 Page 90 William Clarke of Feltwell
M:4/4
L:1/8
N:This is no 194 in Lyn Law's numbering.
N: The m.s. shows no repeats. Clare and others have repeats.
K:D
A||d2d>dd2e/d/c/B/|A2A>AA2f>d|B2g>ec2e>c|d2d>dd2f>e|e2c>d eefe|d2B>c dded|c/B/c/d/ e/d/c/B/A2^G2|A2A>AA2z2||A2A>B cdef|g2e>gf2d>f|a>fdd gefd|c>e A>AA2F>G|A2B>cd2f>d|B2g>ef2(3Adf|a>fdd fedc|d2d>dd2z2||

